X: 18363
T: Humours Of Whiskey, The
R: slip jig
M: 9/8
K: Bminor
|:gfe fBB fBB|gfe fBB fga|gfe fBB fBB|agf efd cBA:|
|:d2e fdf ecA|d2e fef gfe|d2e fdf efg|agf efd cBA:|

